!!!OTL: Die Passion aus den vier Evangelisten
!!!ARE: Europa, Mitteleuropa, Deutschland
!!!SCT: A0543B
!!!YEM: Copyright 1995, estate of Helmut Schaffrath.
**kern
*ICvox
*Ivox
!! Mixed meters:  4/2; 6/2
*M6/2
*k[f#]
*G:
{2g
=1
2g
2dd
2b
2g
=2
2a
2dd
2ee
1dd
2cc#
=3
*M4/2
1dd
2r}
{2dd
=4
*M6/2
1b
2cc
1dd
2dd
=5
1cc
2b
1a}
{2g
=6
1b
2cc
1dd
2dd
=7
1cc
2b
1a}
{2g
=8
1b
2cc
1dd
2cc
=9
2b
2g
2a
1g}
==
!!!AGN: Romanze, Ballade, Lied, religioeses Lied
!! Dresdner Gsgb. 1593
!!!ONB: ESAC (Essen Associative Code) Database: ALTDEU
!!!AMT: irregular
!!!AIN: vox
!!!EED: Helmut Schaffrath
!!!EEV: 1.0
*-
